X:155
T:The Kerry Polka
C:Traditional
L:1/8
R:Polka
M:2/4
K:D
fA BA | fA BA | d2 e>f | ed BA |
fA BA | fa BA | d2 e>f | ed dd2 :|
|: fb fe | ed BA | d2 e>f | ed BA |
fb fe | ed BA | d2 e>f | ed d2 :|

